svg/blobs-icons/no-decorations/beach.svg

<svg xmlns="http://www.w3.org/2000/svg" preserveAspectRatio="xMidYMid" width="206" height="218"><defs><style>.cls-6{fill:#fbb713}</style></defs><g id="group-35svg"><path d="m121.014 197.104 9.549 2.555 22.402-83.612-9.549-2.556-22.402 83.613z" id="path-1" fill-rule="evenodd" style="fill:#142a3b"/><path d="M162.129 58.443c30.891 8.267 49.226 39.996 40.955 70.867L91.221 99.374c8.271-30.872 40.019-49.198 70.908-40.931z" id="path-2" fill-rule="evenodd" style="fill:#ff3a2f"/><path d="M108.28 98.791a3.615 3.615.0 01-3.493-4.551c5.635-21.035 27.347-33.561 48.384-27.93a3.614 3.614.0 01-1.868 6.982c-17.211-4.603-34.929 5.636-39.534 22.82a3.615 3.615.0 01-3.489 2.679z" id="path-3" fill-rule="evenodd" style="fill:#fff"/><path d="M15.873 203.187c17.841-7.497 40.841-12.011 65.944-12.011 37.997.0 71.174 10.343 88.935 25.716L15.873 203.187z" id="path-4" class="cls-6" fill-rule="evenodd"/><path d="M38.648 23.594a3.614 3.614.0 01-3.614-3.615V3.626a3.615 3.615.0 017.229.0v16.353a3.615 3.615.0 01-3.615 3.615z" id="path-5" class="cls-6" fill-rule="evenodd"/><path d="M38.648 77.294a3.614 3.614.0 01-3.614-3.614V57.327a3.615 3.615.0 117.229.0V73.68a3.615 3.615.0 01-3.615 3.614z" id="path-6" class="cls-6" fill-rule="evenodd"/><path d="M73.696 42.268H57.333a3.615 3.615.0 010-7.23h16.363a3.616 3.616.0 010 7.23z" id="path-7" class="cls-6" fill-rule="evenodd"/><path d="M19.965 42.268H3.602a3.615 3.615.0 010-7.23h16.363a3.615 3.615.0 010 7.23z" id="path-8" class="cls-6" fill-rule="evenodd"/><path d="M63.431 67.035c-.924.0-1.85-.352-2.555-1.057L49.305 54.414a3.616 3.616.0 015.112-5.113l11.57 11.562a3.616 3.616.0 01-2.556 6.172z" id="path-9" class="cls-6" fill-rule="evenodd"/><path d="M25.438 29.063c-.925.0-1.85-.352-2.555-1.057L11.311 16.442a3.615 3.615.0 115.112-5.113l11.57 11.562a3.615 3.615.0 01-2.555 6.172z" id="path-10" class="cls-6" fill-rule="evenodd"/><path d="M51.861 29.063a3.612 3.612.0 01-2.558-1.059 3.617 3.617.0 01.002-5.113l11.571-11.562a3.615 3.615.0 015.111 5.113l-11.57 11.564a3.609 3.609.0 01-2.556 1.057z" id="path-11" class="cls-6" fill-rule="evenodd"/><path d="M13.867 67.035a3.616 3.616.0 01-2.556-6.172l11.572-11.562a3.614 3.614.0 115.11 5.113l-11.57 11.564a3.607 3.607.0 01-2.556 1.057z" id="path-12" class="cls-6" fill-rule="evenodd"/><path d="M56.869 39.684c0 10.056-8.157 18.209-18.22 18.209s-18.22-8.153-18.22-18.209 8.157-18.209 18.22-18.209 18.22 8.153 18.22 18.209z" id="path-13" class="cls-6" fill-rule="evenodd"/><path d="M162.129 58.443c-5.476-1.467-10.975-2.056-16.371-1.929 27.099 9.995 42.813 38.703 36.274 67.163l21.052 5.633c8.272-30.871-10.064-62.6-40.955-70.867z" id="path-14" fill-rule="evenodd" style="fill:#020403;opacity:.35"/></g></svg>

<svg xmlns="http://www.w3.org/2000/svg" xmlns:xlink="http://www.w3.org/1999/xlink" preserveAspectRatio="xMidYMid" width="206" height="218" viewBox="0 0 206 218"><defs><style>.cls-3{fill:#142a3b}.cls-4{fill:#ff3a2f}.cls-5{fill:#fff}.cls-6{fill:#fbb713}.cls-16{fill:#020403;opacity:.35}</style></defs><g id="group-35svg"><path d="M121.014 197.104S130.563 199.659 130.563 199.659s22.402-83.612 22.402-83.612S143.416 113.491 143.416 113.491s-22.402 83.613-22.402 83.613z" id="path-1" class="cls-3" fill-rule="evenodd"/><path d="M162.129 58.443c30.891 8.267 49.226 39.996 40.955 70.867L91.221 99.374c8.271-30.872 40.019-49.198 70.908-40.931z" id="path-2" class="cls-4" fill-rule="evenodd"/><path d="M108.28 98.791C107.971 98.791 107.657 98.752 107.342 98.668 105.414 98.151 104.27 96.169 104.787 94.24 110.422 73.205 132.134 60.679 153.171 66.31 155.1 66.826 156.245 68.807 155.728 70.735S153.234 73.806 151.303 73.292C134.092 68.689 116.374 78.928 111.769 96.112 111.336 97.726 109.877 98.791 108.28 98.791z" id="path-3" class="cls-5" fill-rule="evenodd"/><path d="M15.873 203.187C33.714 195.69 56.714 191.176 81.817 191.176c37.997.0 71.174 10.343 88.935 25.716L15.873 203.187z" id="path-4" class="cls-6" fill-rule="evenodd"/><path d="M38.648 23.594c-1.996.0-3.614-1.618-3.614-3.615V3.626c0-1.995 1.618-3.615 3.614-3.615 1.996.0 3.615 1.62 3.615 3.615V19.979c0 1.997-1.619 3.615-3.615 3.615z" id="path-5" class="cls-6" fill-rule="evenodd"/><path d="M38.648 77.294C36.652 77.294 35.034 75.676 35.034 73.68V57.327c0-1.996 1.618-3.615 3.614-3.615 1.996.0 3.615 1.619 3.615 3.615V73.68C42.263 75.676 40.644 77.294 38.648 77.294z" id="path-6" class="cls-6" fill-rule="evenodd"/><path d="M73.696 42.268s-16.363.0-16.363.0c-1.995.0-3.614-1.619-3.614-3.615s1.619-3.615 3.614-3.615H73.696C75.692 35.038 77.311 36.657 77.311 38.653S75.692 42.268 73.696 42.268z" id="path-7" class="cls-6" fill-rule="evenodd"/><path d="M19.965 42.268s-16.363.0-16.363.0c-1.996.0-3.614-1.619-3.614-3.615s1.618-3.615 3.614-3.615H19.965c1.996.0 3.614 1.619 3.614 3.615s-1.618 3.615-3.614 3.615z" id="path-8" class="cls-6" fill-rule="evenodd"/><path d="M63.431 67.035C62.507 67.035 61.581 66.683 60.876 65.978L49.305 54.414C47.893 53.003 47.893 50.714 49.303 49.302 50.715 47.89 53.004 47.89 54.417 49.301l11.57 11.562C67.399 62.275 67.399 64.563 65.989 65.975 65.282 66.681 64.356 67.035 63.431 67.035z" id="path-9" class="cls-6" fill-rule="evenodd"/><path d="M25.438 29.063C24.513 29.063 23.588 28.711 22.883 28.006L11.311 16.442C9.899 15.032 9.899 12.743 11.309 11.331 12.721 9.918 15.01 9.918 16.423 11.329l11.57 11.562C29.406 24.303 29.406 26.591 27.995 28.004 27.289 28.709 26.363 29.063 25.438 29.063z" id="path-10" class="cls-6" fill-rule="evenodd"/><path d="M51.861 29.063C50.936 29.063 50.009 28.709 49.303 28.004 47.893 26.591 47.893 24.303 49.305 22.891L60.876 11.329C62.287 9.918 64.577 9.918 65.989 11.331 67.399 12.743 67.399 15.032 65.987 16.442L54.417 28.006C53.71 28.711 52.785 29.063 51.861 29.063z" id="path-11" class="cls-6" fill-rule="evenodd"/><path d="M13.867 67.035C12.942 67.035 12.016 66.682 11.309 65.975 9.899 64.563 9.899 62.275 11.311 60.863L22.883 49.301C24.294 47.89 26.583 47.889 27.995 49.302 29.406 50.714 29.406 53.003 27.993 54.414L16.423 65.978C15.716 66.683 14.792 67.035 13.867 67.035z" id="path-12" class="cls-6" fill-rule="evenodd"/><path d="M56.869 39.684c0 10.056-8.157 18.209-18.22 18.209s-18.22-8.153-18.22-18.209c0-10.056 8.157-18.209 18.22-18.209s18.22 8.153 18.22 18.209z" id="path-13" class="cls-6" fill-rule="evenodd"/><path d="M162.129 58.443c-5.476-1.467-10.975-2.056-16.371-1.929 27.099 9.995 42.813 38.703 36.274 67.163l21.052 5.633C211.356 98.439 193.02 66.71 162.129 58.443z" id="path-14" class="cls-16" fill-rule="evenodd"/></g></svg>
